!! 00000] TT[WS
!!!OTL: Tiao cai
!!!ARE: Asia, China, Shanxi Ningwu
!! Ethnic Group: Han
!! WII, 141
!!!SCT: J0616
!!!YEM: Copyright 1995, estate of Helmut Schaffrath.
**kern
*ICvox
*Ivox
*M2/4
*k[f#]
*G:
{8dd
16dd
16a
8dd
16dd
16a
=1
16dd
16a
16dd
16ee
16cc
16e
16d
16r}
=2
{8a
16a
16b
8dd
16ee
16dd
=3
8a
8cc
16cc
16e
16d
16r
=4
16cc
8cc
16a
16cc
16a
16g
16e
=5
2d}
=6
{4r
8dd
16dd
16a
=7
16dd
16a
16dd
16ee
16cc
16e
16d
16r}
=8
{8a
16a
16b
8dd
16ee
16dd
=9
8a
8cc
16cc
16e
16d
16r
=10
16cc
16cc
16cc
16dd
16a
16g
16e
16g
=11
2d}
==
!!!AGN: Xiaodiao. Maimai, Qingge
!!!ONB: ESAC (Essen Associative Code) Database: CHINA
!!!AMT: simple duple
!!!AIN: vox
!!!EED: Helmut Schaffrath
!!!EEV: 1.0
*-
